X:1
T: Jockey Latin
C:
R:Reel
Q: 232
K:G
M:4/4
L:1/8
|:GA Bc d2 g2|e2 B2 B2 g2|d2 B2 B2 g2|d4 c2 B2|
GA Bc d2 e2|d2 B2 B2 g2|a2 A2 A2 B2|AB c2 B2 A2:|
|:GA Bc d2 B2|e2 c2 d2 B2|GA Bc d2 B2|d4 c2 B2|
GA Bc d2 B2|e2 c2 d2 B2|c2 A2 A2 B2|1AB c2 B2 A2:|2AB c2 G4||
